X:1
T:Down by the Fountain of His Love
T:Down by the Fountain of His Love
T:A. Joel Bond, 1909
T:A. Joel Bond
T:Public Domain Courtesy of the Cyber Hymnal™
T:Public Domain Courtesy of the Cyber Hymnal™
C:A. Joel Bond, 1909
Z:Public Domain
Z:Courtesy of the Cyber Hymnal™
%%score ( 1 2 ) ( 3 4 )
L:1/8
Q:1/4=85
M:4/4
K:Eb
V:1 treble 
V:2 treble 
V:3 bass 
V:4 bass 
V:1
 E[EF] | [EG]<[GB] [GB]>[Ac] [GB]<[EG] [EF]E | [Ec]<[Ee] [Ee]>[Ec] [EB]4 | %3
w: 1.~I am|liv- ing, dai- ly liv- ing ’Neath the|shel- ter of His grace,|
w: 2.~I am|trust- ing in His prom- is- es Which|ne- ver, ne- ver fail,|
w: 3.~I am|sing- ing hal- le- lu- jah Aas the|mo- ments on- ward flee,|
 [GB]2 [GB]>[GB] [Ac][GB][EG]E | [DF]6 E[EF] | [EG]<[GB] [GB]>[Ac] [GB][EG][EF]E | %6
w: Down by the fount- ain of His|love; And the|storms of doubt and tri- al Ne’er can|
w: Down by the fount- ain of His|love; And by|keep- ing close to Je- sus I shall|
w: Down by the fount- ain of His|love; And my|soul is filled with glo- ry For the|
 [Ec]<[Ee] [Ee]>[Ec] [EB]4 | [Ec]2 [Ee]>[Ec] [EB][EG][DF][DG] | [B,E]6 z2 || %9
w: hide His bless- èd face,|Down by the fount- ain of His|love.|
w: wea- ther ev- ery gale,|Down by the fount- ain of His|love.|
w: peace He gives to me,|Down by the fount- ain of His|love.|
"^Refrain" [GB]2 [Ge]>[Ac] [GB][EG]E[EF] | [EG]2 [EA]2 [EB]4 | [Ec]2 [Ee]>[Ac] [GB][EG][EF]E | %12
w: |||
w: Down by the fount- ain I will|ev- er stay,|Down where His pre- sence lights the|
w: |||
 [DF]2 [EG]2 [DF]2 E[EF] | [EG]<[GB] [GB]>[Gc] [GB]2 [EG][DF] | E[Ee] [Ee]>[Ac] [GB]4 | %15
w: |||
w: wea- ry way; I shall|lay my bur- dens down And re-|ceive the roy- al crown,|
w: |||
 [Ac]2 [Ae]>[Ac] [GB][EG][DF][DG] | [B,E]6 |] %17
w: ||
w: Down by the fount- ain of His|love.|
w: ||
V:2
 E x | x7 E | x8 | x7 E | x6 E x | x7 E | x8 | x8 | x8 || x6 E x | x8 | x7 E | x6 E x | x8 | E x7 | %15
 x8 | x6 |] %17
V:3
 [E,G,][E,A,] | [E,B,]<[E,E] [E,E]>[E,E] [E,E]<[E,B,] [E,A,][E,G,] | %2
 [A,,A,]<[C,A,] [C,A,]>[A,,A,] [E,G,]4 | [E,E]2 [E,E]>[E,E] [E,E][E,E][E,B,][E,G,] | %4
 (B,4 A,2) [E,G,][E,A,] | [E,B,]<[E,E] [E,E]>[E,E] [E,E][E,B,][E,A,][E,G,] | %6
 [A,,A,]<[C,A,] [C,A,]>[A,,A,] [E,G,]4 | [A,,A,]2 [A,,C]>[A,,A,] [B,,G,][B,,B,][B,,A,][B,,B,] | %8
 [E,G,]6 z2 || [E,B,]2 [E,B,]>[E,E] [E,E][E,B,][E,G,][E,A,] | [E,B,]2 [F,B,]2 [G,B,]4 | %11
 A,2 [A,C]>[A,E] [E,E][E,B,][E,A,][E,G,] | [B,,B,]2 [B,,B,]2 (B,A,)[E,G,][E,A,] | %13
 [E,B,]<[E,E] [E,E]>[E,E] [E,E]2 [E,B,][A,B,] | [G,B,][G,B,] [A,C]>[A,E] [E,E]4 | %15
 [A,E]2 [A,C]>[A,E] [E,E][E,B,][B,,A,][B,,B,] | [E,G,]6 |] %17
V:4
 x2 | x8 | x8 | x8 | B,,6 x2 | x8 | x8 | x8 | x8 || x8 | x8 | A,2 x6 | x4 B,,2 x2 | x8 | x8 | x8 | %16
 x6 |] %17

